Numix-GalliumOS/64/mimetypes/application-x-mono-develop.svg

<svg xmlns="http://www.w3.org/2000/svg" xmlns:xlink="http://www.w3.org/1999/xlink" width="64px" height="64px" viewBox="0 0 64 64" version="1.1">
<g id="surface1">
<path style=" stroke:none;fill-rule:nonzero;fill:rgb(40.392157%,54.509804%,72.156863%);fill-opacity:1;" d="M 10.671875 0 C 9.296875 0 8 1.355469 8 2.789062 L 8 61.210938 C 8 62.566406 9.375 64 10.671875 64 L 53.328125 64 C 54.625 64 56 62.566406 56 61.210938 L 56 18 L 38 0 Z M 10.671875 0 "/>
<path style=" stroke:none;fill-rule:nonzero;fill:rgb(0%,0%,0%);fill-opacity:0.196078;" d="M 42 18 L 56 32 L 56 18 Z M 42 18 "/>
<path style=" stroke:none;fill-rule:nonzero;fill:rgb(100%,100%,100%);fill-opacity:0.392157;" d="M 38 0 L 55.984375 18 L 40.757812 18 C 39.410156 18 38 16.574219 38 15.226562 Z M 38 0 "/>
<path style=" stroke:none;fill-rule:nonzero;fill:rgb(100%,100%,100%);fill-opacity:1;" d="M 25.792969 22.738281 C 21.195312 22.738281 15.40625 27.085938 15.460938 33.820312 C 15.507812 40.339844 17.675781 43.871094 19.335938 47.867188 L 24.253906 45.824219 C 23.125 43.527344 21.648438 41.253906 21.125 40.113281 C 19.664062 36.929688 19.167969 35.496094 19.292969 33.070312 C 19.40625 30.726562 20.1875 29.292969 21.625 27.90625 C 23.058594 26.523438 25.050781 25.824219 27.417969 26.152344 C 30.835938 26.621094 32.636719 28.535156 33.503906 30.28125 C 33.992188 30.210938 34.492188 30.152344 35.046875 30.15625 C 35.476562 30.15625 35.910156 30.1875 36.335938 30.28125 C 35.417969 26.652344 30.894531 22.738281 25.792969 22.738281 Z M 27.878906 29.070312 C 25.785156 28.933594 22.734375 29.953125 22.753906 33.15625 C 22.765625 36.183594 24.664062 38.453125 26.917969 39.363281 C 26.871094 38.601562 26.921875 37.757812 27.042969 36.90625 C 25.820312 36.242188 25.078125 35.058594 24.960938 33.40625 C 24.820312 31.570312 26.644531 29.714844 29.542969 30.65625 C 30.011719 30.804688 30.027344 29.996094 29.503906 29.570312 C 29.160156 29.300781 28.574219 29.117188 27.878906 29.070312 Z M 35.046875 31.488281 C 34.679688 31.488281 34.332031 31.5 34.003906 31.53125 C 34.089844 31.855469 34.152344 32.183594 34.171875 32.445312 C 34.382812 32.433594 34.613281 32.4375 34.835938 32.445312 C 35.453125 32.476562 36.023438 32.574219 36.546875 32.738281 C 36.566406 32.394531 36.554688 32.066406 36.546875 31.738281 C 36.050781 31.582031 35.546875 31.492188 35.046875 31.488281 Z M 34.046875 33.738281 C 33.71875 35.148438 32.730469 36.878906 30.710938 37.363281 C 30.664062 37.65625 30.617188 37.929688 30.628906 38.113281 C 30.652344 38.5 30.734375 39.039062 30.960938 39.613281 C 34.417969 38.980469 35.902344 36.554688 36.378906 34.070312 C 35.917969 33.886719 35.390625 33.769531 34.753906 33.738281 C 34.507812 33.726562 34.261719 33.71875 34.046875 33.738281 Z M 28.335938 37.40625 C 28.265625 38.050781 28.214844 38.691406 28.253906 39.28125 C 28.261719 39.421875 28.269531 39.554688 28.292969 39.699219 C 28.550781 39.734375 28.789062 39.820312 29.042969 39.824219 C 29.261719 39.824219 29.464844 39.792969 29.667969 39.78125 C 29.464844 39.207031 29.324219 38.660156 29.292969 38.199219 C 29.28125 38 29.277344 37.765625 29.292969 37.53125 C 28.960938 37.515625 28.632812 37.464844 28.335938 37.40625 Z M 28.335938 37.40625 "/>
<path style=" stroke:none;fill-rule:nonzero;fill:rgb(66.27451%,75.686275%,89.019608%);fill-opacity:1;" d="M 44.765625 22.757812 C 46.429688 26.746094 48.632812 30.261719 48.679688 36.785156 C 48.730469 43.519531 42.914062 47.875 38.3125 47.875 C 32.746094 47.875 27.847656 43.207031 27.589844 39.34375 C 27.355469 35.855469 28.605469 30.78125 35.0625 30.816406 C 38.144531 30.835938 41.347656 33.496094 41.363281 37.457031 C 41.386719 41.730469 35.988281 42.152344 34.628906 41.0625 C 34.105469 40.640625 34.121094 39.800781 34.582031 39.953125 C 37.488281 40.890625 39.28125 39.039062 39.148438 37.203125 C 38.96875 34.699219 37.476562 33.214844 34.800781 33.09375 C 30.941406 32.910156 29.863281 36.632812 29.960938 38.148438 C 30.082031 39.988281 31.695312 43.769531 36.71875 44.457031 C 39.089844 44.785156 41.058594 44.082031 42.488281 42.699219 C 43.921875 41.3125 44.734375 39.882812 44.851562 37.539062 C 44.972656 35.117188 44.441406 33.695312 42.980469 30.511719 C 42.457031 29.371094 41 27.085938 39.867188 24.789062 L 44.769531 22.757812 M 44.765625 22.757812 "/>
</g>
</svg>

<svg xmlns="http://www.w3.org/2000/svg" viewBox="0 0 64 64">
 <g>
  <path d="m 10.672 0 c -1.375 0 -2.672 1.355 -2.672 2.789 l 0 58.42 c 0 1.355 1.375 2.789 2.672 2.789 l 42.656 0 c 1.297 0 2.672 -1.434 2.672 -2.789 l 0 -43.21 l -18 -18 m -27.328 0" style="fill:#678bb8;fill-opacity:1;stroke:none;fill-rule:nonzero"/>
  <path d="m 42 18 l 14 14 l 0 -14 m -14 0" style="fill:#000;fill-opacity:0.196;stroke:none;fill-rule:nonzero"/>
  <path d="m 38 0 l 17.984 18 l -15.227 0 c -1.348 0 -2.758 -1.426 -2.758 -2.773 m 0 -15.227" style="fill:#fff;fill-opacity:0.392;stroke:none;fill-rule:nonzero"/>
  <path d="m 25.793 22.738 c -4.598 0 -10.387 4.348 -10.332 11.08 c 0.047 6.52 2.215 10.05 3.875 14.05 l 4.918 -2.043 c -1.129 -2.297 -2.605 -4.57 -3.129 -5.711 c -1.461 -3.184 -1.957 -4.617 -1.832 -7.04 c 0.113 -2.344 0.895 -3.777 2.332 -5.164 c 1.434 -1.383 3.426 -2.082 5.793 -1.754 c 3.418 0.469 5.219 2.383 6.086 4.129 c 0.488 -0.07 0.988 -0.129 1.543 -0.125 c 0.43 0 0.863 0.031 1.289 0.125 c -0.918 -3.629 -5.441 -7.543 -10.543 -7.543 m 2.086 6.332 c -2.094 -0.137 -5.145 0.883 -5.125 4.086 c 0.012 3.03 1.91 5.297 4.164 6.207 c -0.047 -0.762 0.004 -1.605 0.125 -2.457 c -1.223 -0.664 -1.965 -1.848 -2.082 -3.5 c -0.141 -1.836 1.684 -3.691 4.582 -2.75 c 0.469 0.148 0.484 -0.66 -0.039 -1.086 c -0.344 -0.27 -0.93 -0.453 -1.625 -0.5 m 7.168 2.418 c -0.367 0 -0.715 0.012 -1.043 0.043 c 0.086 0.324 0.148 0.652 0.168 0.914 c 0.211 -0.012 0.441 -0.008 0.664 0 c 0.617 0.031 1.188 0.129 1.711 0.293 c 0.02 -0.344 0.008 -0.672 0 -1 c -0.496 -0.156 -1 -0.246 -1.5 -0.25 m -1 2.25 c -0.328 1.41 -1.316 3.141 -3.336 3.625 c -0.047 0.293 -0.094 0.566 -0.082 0.75 c 0.023 0.387 0.105 0.926 0.332 1.5 c 3.457 -0.633 4.941 -3.059 5.418 -5.543 c -0.461 -0.184 -0.988 -0.301 -1.625 -0.332 c -0.246 -0.012 -0.492 -0.02 -0.707 0 m -5.711 3.668 c -0.07 0.645 -0.121 1.285 -0.082 1.875 c 0.008 0.141 0.016 0.273 0.039 0.418 c 0.258 0.035 0.496 0.121 0.75 0.125 c 0.219 0 0.422 -0.031 0.625 -0.043 c -0.203 -0.574 -0.344 -1.121 -0.375 -1.582 c -0.012 -0.199 -0.016 -0.434 0 -0.668 c -0.332 -0.016 -0.66 -0.066 -0.957 -0.125 m 0 0" style="fill:#fff;fill-opacity:1;stroke:none;fill-rule:nonzero"/>
  <path d="m 44.766 22.758 c 1.664 3.988 3.867 7.504 3.914 14.03 c 0.051 6.734 -5.766 11.09 -10.367 11.09 c -5.566 0 -10.465 -4.668 -10.723 -8.531 c -0.234 -3.488 1.016 -8.563 7.473 -8.527 c 3.082 0.02 6.285 2.68 6.301 6.641 c 0.023 4.273 -5.375 4.695 -6.734 3.605 c -0.523 -0.422 -0.508 -1.262 -0.047 -1.109 c 2.906 0.938 4.699 -0.914 4.566 -2.75 c -0.18 -2.504 -1.672 -3.988 -4.348 -4.109 c -3.859 -0.184 -4.938 3.539 -4.84 5.05 c 0.121 1.84 1.734 5.621 6.758 6.309 c 2.371 0.328 4.34 -0.375 5.77 -1.758 c 1.434 -1.387 2.246 -2.816 2.363 -5.16 c 0.121 -2.422 -0.41 -3.844 -1.871 -7.03 c -0.523 -1.141 -1.98 -3.426 -3.113 -5.723 l 4.902 -2.031 m -0.004 0" style="fill:#a9c1e3;fill-opacity:1;stroke:none;fill-rule:nonzero"/>
 </g>
</svg>
